X:1
T:Non nobis, domine
T:Mathieu Gascongne (fl. early 16th Century) after Jean Mouton (c. 1459 – 30 October 1522) Edited by Jonathan Goodliffe and Mick Swithinbank
T:First sentence of the text from the Bible, Psalm 113
T:Non nobis, domine
T:Motet celebrating the coronation of François I, king of France
T:Copyright © 
T:Copyright © 
T:Copyright © 
T:Copyright © 
T:Copyright © 
T:Copyright © 
T:Copyright © 
T:Copyright © 
C:Mathieu Gascongne (fl. early 16th Century)
C:after Jean Mouton (c. 1459 – 30 October 1522)
C:Edited by Jonathan Goodliffe and Mick Swithinbank
Z:First sentence of the text from
Z:the Bible, Psalm 113
Z:Copyright ©
%%score [ 1 2 3 4 ]
L:1/8
M:2/2
K:F
V:1 treble nm="Superius" snm="S."
V:2 treble-8 transpose=-12 nm="Contra tenor" snm="T."
V:3 treble-8 transpose=-12 nm="Tenor" snm="T."
V:4 bass nm="Bassus" snm="B."
V:1
 z8 | z8 | F4 A4- | A4 A4 | c6 B2 | A2 G2 B4- | B2 AG A4- | A4 z2 A2 | c3 c c2 c2 | G6 A2 | B4 G4 | %11
w: ||Non no-|* bis|do- mi-|ne non no-|* * * bis,|_ sed|no- mi- ni tu-|o da|glo- ri-|
 F8- | F8 | z2 E2 F2 A2- | AG F4 ED | E4 F4 | z4 A4 | A2 A2 G4 | A2 c4 BA | G3 A B4 | A4 A4 | %21
w: am,|_|da _ glo-|* i- * * *|* am|qui|Fran- cis- cum|su- bli- ma- *||sti et|
 A2 A2 G4 | A2 c4 BA | G3 A B4 | A4 z2 A2 | c4 B2 A2 | B4 A2 G2 | z2 A3 G G2- | G2 ^FE F4 | G8 | %30
w: in re- gem|co- ro- * *|* * nas-|ti. Cum|ple- bis lae-|ti- ti- a,|lae- * ti-|* * * ti-|a|
 z8 | A4 A2 B2 | A2 G2 A4- | A2 B2 c4 | z8 | z8 | c6 B2 | A4 F2 G2 | A4 G4- | G4 F2 A2- | %40
w: |er- go cla-|me- mus in|_ cae- lum|||Vi- vat|rex in e-|* ter-||
 A2 G2 F4 | E8- | E4 z2 A2- | A2 F2 c4 | z2 A4 F2 | c3 B G2 A2- | AG F4 E2 | F8- | F8 | z8 | z8 | %51
w: |num.|_ Vi-|* vat rex,|vi- vat|rex _ per sae-|* * * cu-|la.|_|||
 z8 | z8 | z8 | z8 | z4 A4 | A2 A2 c4- | c2 d2 c2 A2 | c6 BA | G2 F2 G2 A2- | A2 G2 c4 | %61
w: ||||O|Fran- ci- a|_ quan- tum _|po- * *|* * tes, lau-|* da de-|
 B2 A3 G G2- | G2 F2 G4 | z4 C4 | D4 E4 | D4 F2 E2 | D4 C4 | z4 C3 D | EFGA G2 c2- | c2 BA G4 || %70
w: |* * um,|qui|ti- bi|re- gem fran-|cis- cum|de- *|||
[M:3/2] F8 z4 | A8 A4 | B4 A4 G4 | A8 B4 | c8 z4 | c8 A4 | F4 G4 A4- | A4 B8 | A8 z4 | A8 G4 | %80
w: dit.|Er- go|cla- me- mus|in cae-|lum|vi- vat|rex in e-|* ter-|num,|vi- vat|
 c8 z4 | A8 G4 | c6 F2 G4- | G2 FG A4 G4 | F6 ED E4 | F16 ||[M:2/2] z8 | z8 | z8 | z8 | z8 | z8 | %92
w: rex,|vi- vat|rex per sae-||* * * cu-|la.|||||||
 z8 | z8 | z8 | z8 | F4 F2 G2 | A4 F2 c2- | cBAG A2 G2- | G2 FE F2 G2 | E4 A4 | G2 A2 B2 G2 | %102
w: ||||Con- ser- va|re- gem Fran-|* * * * * cis-|* * * * cum,|dans pa-|cem su- is die-|
 A6 GF | G4 F4 | F8 | F2 E2 D2 C2 | D4 C4 | z4 A4 | A2 B2 A2 G2 | A6 B2 | c4 z4 | z8 | z4 c4- | %113
w: e- * *||bus,|su- is di- *|e- bus.|Er-|go cla- me- mus|in cae-|lum:||vi-|
 c2 B2 A4 | F2 G2 A4 | G8 | z2 A4 G2- | G2 F2 G2 E2 | F4 E4- | E4 z2 A2- | A2 F2 c4 | z2 A4 F2 | %122
w: * vat rex|in e- ter-|num,|in e-||ter- num,|_ vi-|* vat rex,|vi- vat|
 c3 c G2 A2- | AG F4 E2 | F4 z2 C2 | E3 F G2 A2 | F2 B4 A2- | A2 G2 A4 | z8 | z8 | z8 | %131
w: rex per se- *|* * cu- *|la. O|Ma- * ri- *||* * a,||||
 z2 G2 G2 A2 | B4 A4 | F2 c4 BA | GF G3 F ED | C2 c4 =B2 | c8 | c4 c2 c2 | A4 A2 c2- | %139
w: O Ma- ri-|a, O|Ma- ri- a _|ma- * ter _ de- *|i, de- *|i,|ex- au- di|pre- ces Fran-|
 cB AG AB A2- | A2 G2 A4- | A4 z4 | z8 | z4 A3 G | A2 c2 B2 A2 | G4 F3 E | D2 C2 E2 F2 | E4 c3 B | %148
w: * * * * * * cis-|* * cum.|_||Ser- va|sem- per li- li-|um da ro-|bur, fer au- xi-|li- * *|
 AG A2 G4 ||[M:3/2] F8 z4 | A8 A4 | B4 A4 G4 | A8 B4 | c8 z4 | c8 A4 | F4 G4 A4- | A4 B8 | A8 z4 | %158
w: |um.|Er- go|cla- me- mus|in cae-|lum:|vi- vat|rex in e-|* ter-|num,|
 A8 G4 | c8 z4 | A8 G4 | c6 F2 G4- | G2 FG A4 G4 | F8 E4 | F8 z4 | A8 G4 | c8 z4 | A8 G4 | %168
w: vi- vat|rex,|vi- vat|rex per se-||cu- *|la,|vi- vat|rex,|vi- vat|
 c6 F2 G4- | G2 FG A4 G4 | F6 ED E4 | F16 |] %172
w: rex per se-||cu- * * *|la.|
V:2
 c4 d4- | d4 d4 | f6 e2 | d2 c2 f4- | f2 ed e4 | z2 e2 g3 g | g2 g2 d2 e2 | f4 d4 | c4 e4- | %9
w: Non no-|* bis|do- mi-|ne non no-|* * * bis,|sed no- mi-|ni tu- * o|da glo-|ri- am,|
 e4 g4- | g2 f2 e2 d2- | d2 cB A3 G | AB c4 F2 | A2 G2 A3 B | c2 d3 B d2 | c4 z4 | f4 f2 f2 | %17
w: _ sed|_ no- mi- ni|_ _ _ tu- o|da _ glo- *||* * * ri-|am,|qui Fran- cis-|
 d2 d2 e4 | f4 c4 | z8 | e4 f2 f2 | d2 d2 e4 | f4 c4 | z2 e2 g4 | f2 e2 f4- | f2 e2 d4- | %26
w: cum sub- li-|mas- ti||et in re-|gem co- ro-|nas- ti|cum ple-|bis lae- ti-|* ti- a,|
 d4 z2 G2 | A2 F2 G4 | d8 | B4 z4 | d4 d2 _e2 | d2 c2 d4- | d2 e2 f4 | z8 | f6 e2 | d4 c4- | %36
w: _ lae-|ti- ti- *||a.|Er- go cla-|me- mus in|_ cae- lum.||Vi- vat|rex in|
 c2 B2 A2 GF | c4 d2 e2 | f4 e4- | e2 dc d2 c2 | d2 e2 c4- | c8- | c4 z2 c2 | d4 e4 | z2 c2 d4 | %45
w: _ e- * * ter-|num, vi- vat|rex in|_ _ _ e- *|* ter- num.|_|* Vi-|vat rex,|vi- vat|
 e4 z2 c2- | c2 B2 c4 | A4 z4 | A4 A2 A2 | c6 d2 | c2 A2 c4- | c2 BA G2 d2- | dc c4 =B2 | %53
w: rex per|_ sae- cu-|la.|O Fran- ci-|a quan-|tum _ po-|* * * tes lau-|* * da de-|
 c2 c4 B2 | A4 G2 FG | AB c3 BAG | FE F3 E A2- | A2 G2 A4 | z8 | z8 | z8 | z8 | z8 | z2 F4 G2 | %64
w: um qui ti-|bi re- gem _|_ _ Fran- cis- * cum|_ _ de- * *|* * dit||||||pro sa-|
 A6 G2 | B4 BAGF | G4 E4 | z2 F3 GAB | cd c3 BAG | F2 f4 e2 ||[M:3/2] f8 z4 | e8 c4 | d4 f4 g4 | %73
w: lu- te|pa- tri- * * *|* ae,|pa- tri- * *|||ae.|Er- go|cla- me- mus|
 f6 e2 d4 | e8 z4 | f8 f4- | f4 d4 e4 | f4 d6 e2 | f8 z4 | f8 e4 | f8 z4 | f8 e4 | c4 d4 e4- | %83
w: in _ cae-|lum|vi- vat|_ rex in|e- ter- *|num.|Vi- vat|rex.|Vi- vat|rex per _|
 e4 f4 c4- | c12 | c16 ||[M:2/2] z8 | z8 | z8 | z8 | z8 | z8 | z8 | z8 | c4 c2 d2 | e4 c2 f2- | %96
w: _ sae- cu-||la.|||||||||Con- ser- va|re- gem Fran-|
 fedc d2 c2- | c2 BA B2 c2 | A4 c4 | B2 c2 d2 B2 | c3 B AG d2 | e2 d4 cB | A2 f4 ed | e4 A4- | %104
w: * * * * * cis-||cum, dans|pa- cem su- is|di- * * * *|* e- * *||* bus,|
 A4 c4 | B2 c2 B2 A2- | A2 G2 A4- | A4 z4 | d4 d2 e2 | d2 c2 d4 | e4 f4 | z8 | F4 G4 | A4 f4- | %114
w: _ su-|is di- * e-|* * bus.|_|Er- go cla-|me- mus in|cae- lum||vi- vat|rex, vi-|
 f2 e2 d4 | B2 c2 d4 | c8 | z2 d4 c2- | c2 =B2 c4- | c4 z2 c2 | d4 e4 | z2 c2 d4 | e4 z2 c2- | %123
w: * vat rex|in e- ter-|num,|in e-|* ter- num.|_ vi-|vat rex|vi- vat|rex per|
 c2 B2 c4 | A4 c4 | c4 c4 | d4 z4 | z8 | z8 | z4 z2 d2 | d2 e2 f4 | e4 c4 | z4 z2 c2 | d2 e2 f4 | %134
w: _ se- cu-|la. O|Ma- ri-|a,|||O|Ma- ri- a|ma- ter,|O|Ma- ri- a|
 e4 c2 g2- | g2 fe dc d2 | c4 f4 | f2 f2 e4- | e4 z4 | f4 f2 f2 | d2 e2 f4 | d4 c4 | z8 | z4 f3 e | %144
w: ma- ter de-||i, au-|di pre- ces,|_|au- di pre-|ces po- *|pu- li.||Ser- va|
 d2 c2 d2 f2 | e4 z4 | A4 G2 F2 | c3 B AG A2 | F2 f4 e2 ||[M:3/2] f8 z4 | e8 c4 | d4 f4 g4 | %152
w: sem- per li- li-|um,|da ro- bur,|fer au- * * *|* xi- li-|um.|Er- go|cla- me- mus|
 f6 e2 d4 | e8 z4 | f8 f4- | f4 d4 e4 | f6 ed e4 | f8 z4 | f8 e4 | f8 z4 | f8 e4 | c4 d4 e4- | %162
w: in cae- *|lum:|vi- vat|_ rex in|e- * * ter-|num.|Vi- vat|rex,|vi- vat|rex per se-|
 e4 f4 c4- | c12 | c8 z4 | f8 e4 | f8 z4 | f8 e4 | c4 d4 e4- | e4 f4 c4- | c12 | c16 |] %172
w: * * cu-||la.|Vi- vat|rex,|vi- vat|rex per sae-|* * cu-||la.|
V:3
 z8 | z8 | z8 | z8 | z8 | z8 | z8 | z8 | A4 c3 c | c2 c2 G4 | z2 G2 B4 | A4 F4 | z4 A4 | %13
w: ||||||||Sed no- mi-|ni tu- o|da glo-|ri- am,|sed|
 c3 c c2 c2 | G2 A2 B4 | G4 F4- | F4 z4 | z4 c4 | c2 c2 A2 A2 | c4 d4 | c4 z4 | z4 c4 | %22
w: no- mi- ni tu-|o da glo-|ri- am.|_|Qui|Fran- cis- cum sub-|li- ma-|sti|et|
 c2 c2 A2 A2 | c4 d4 | c8 | z8 | z2 G2 c4 | c2 A2 B4- | B2 AG A4 | G8 | z8 | z8 | z4 c4 | %33
w: in re- gem co-|ro- na-|sti||cum ple-|bis lae- ti-|* * * ti-|a.|||Er-|
 c2 B2 A2 G2 | d3 c A2 c2 | B4 A4- | A4 z4 | z8 | z4 c4- | c2 B2 A4 | F2 G2 A4 | G4 z2 A2- | %42
w: go cla- me- mus|in _ cae- *|* lum.|_||Vi-|vat rex in|e- ter- *|num, vi-|
 A2 G2 c4 | z2 A4 G2 | c4 z2 A2- | A2 G2 c4 | A2 F2 G4 | F8 | z8 | z8 | z8 | z8 | z8 | z8 | z8 | %55
w: * vat rex,|vi- vat|rex per|_ sae- *|* * cu-|la.||||||||
 z8 | z8 | z4 A4 | A2 A2 c4- | c2 d2 c2 A2 | c6 BA | G2 F2 G4 | A4 G2 c2- | c2 B2 A2 G2- | %64
w: ||O|Fran- ci- a|_ quan- tum po-|tes _ _|lau- da de-|um qui ti-|* bi re- gem|
 G2 F2 c4 | B2 d4 c2 | B4 A4- | A8 | z8 | z8 ||[M:3/2] z12 | c8 c4 | B4 c4 c4 | F8 F4 | G8 z4 | %75
w: _ Fran- cis-|cum de- *|* dit.|_||||Er- go|cla- me- mus|in cae-|lum|
 A8 c4 | d8 c4 | c6 BA B4 | c12- | c8 z4 | A8 G4 | c8 z4 | A8 G4 | c6 F2 G4 | A4 G8 | F16 || %86
w: vi- vat|rex in|in e- * ter-|num.|_|Vi- vat|rex,|vi- vat|rex per _|sae- cu-|la.|
[M:2/2] z8 | z8 | F4 F2 G2 | A4 F2 c2- | cB AG A2 G2- | G2 FE F2 G2 | E4 A4 | G2 A2 B2 G2 | A6 GF | %95
w: ||Je- su bo-|ne rex vir-|* * tu- * * *||tem qui|das sa- lu- tem|re- * *|
 G4 F4 | z8 | z8 | z8 | z8 | z8 | z8 | z8 | c8 | c4 A3 G | FE G2 F2 E2- | E2 D2 E4- | E4 z4 | z8 | %109
w: gi- bus,||||||||dans|pa- cem _|_ _ su- is di-|* e- bus.|_||
 z8 | A4 A2 B2 | A2 G2 A4- | A2 B2 c4- | c4 z4 | z8 | z2 c4 B2 | A4 F2 G2 | A4 G4 | z4 z2 A2- | %119
w: |Er- go cla-|me- mus in|_ cae- lum:|_||vi- vat|rex in e-|ter- num,|vi-|
 A2 G2 c4 | z2 A4 G2 | c4 z2 A2- | A2 G2 c4 | A2 F2 G4 | F8 | z8 | z2 G2 G2 A2 | B4 A4 | F2 c4 BA | %129
w: * vat rex,|vi- vat|rex, vi-|vat rex per|se- * cu-|la.||O Ma- ri-|a ma-|ter de- * *|
 GF G3 A B2- | B2 AG A2 F2 | c6 BA | G4 F4 | z8 | z8 | z8 | z8 | z8 | c4 c2 c2 | A2 d2 c4 | B4 A4 | %141
w: |* * * * i,|de- * *|* i||||||ex- au- di|pre- ces po-|lu- li|
 z4 A3 G | A2 c2 B2 A2 | G4 z4 | z2 A2 G2 F2 | c3 B AG A2 | F2 c4 A2- | AG/F/ G2 F4 | z8 || %149
w: ser- va|sem- per li- li-|um,|da ro- bur,|fer _ _ _ _|au- xi- *|* * * li- um.||
[M:3/2] z12 | c8 c4 | B4 c4 c4 | F8 F4 | G8 z4 | A8 c4 | d8 c4 | c4 B8 | c12- | c8 z4 | A8 G4 | %160
w: |Er- go|cla- me- mus|in cae-|lum:|vi- vat|rex in|e- ter-|num,|_|vi- vat|
 c8 z4 | A8 G4 | c6 F2 G4 | A4 G8 | F8 z4 | z8 z4 | A8 G4 | c8 z4 | A8 G4 | c6 F2 G4 | A4 G8 | %171
w: rex,|vi- vat|rex per se-|* cu-|la.||Vi- vat|rex,|vi- vat|rex per se-|* cu-|
 F16 |] %172
w: la.|
V:4
 z8 | z8 | z8 | z8 | z8 | z8 | z8 | z8 | z8 | z4 E,4 | G,3 G, G,2 G,2 | D,6 E,2 | F,4 D,4 | %13
w: |||||||||Sed|no- mi- ni tu-|o da|glo- ri-|
 C,4 F,4 | E,2 D,4 B,,2 | C,4 F,,4- | F,,4 z4 | z8 | F,4 F,2 F,2 | C,2 C,2 G,4 | A,4 F,4 | z8 | %22
w: am, glo-||ri- am,|_||qui Fran- cis-|cum sub- li-|mas- ti||
 F,4 F,2 F,2 | C,2 C,2 G,4 | A,4 F,4 | z4 z2 D,2 | G,4 F,2 E,2 | F,4 _E,4 | D,8 | z4 G,4- | %30
w: et in re-|gem co- ro-|nas- ti,|ple-|bis cum lae-|ti- ti-|a.|Er-|
 G,4 G,4 | z8 | z4 F,4 | F,2 G,2 F,2 E,2 | D,3 E, F,G, A,2- | A,2 G,2 A,4 | z8 | F,6 E,2 | %38
w: * go,||er-|go cla- me- mus|in cae- * * *|* * lum||vi- vat|
 D,4 z2 C,D, | E,F, G,2 D,2 F,2- | F,2 E,2 F,4 | C,8 | z2 C,4 A,,2 | D,4 z2 C,2- | C,2 A,,2 D,4 | %45
w: rex in _|_ _ _ e- ter-||num,|vi- vat|rex, vi-|* vat rex|
 z2 C,4 A,,2 | D,4 C,4 | z4 D,4 | D,2 D,2 F,4- | F,2 F,2 E,2 D,2 | F,6 E,D, | C,6 B,,2 | C,4 D,4 | %53
w: per sae-|cu- la.|O|Fran- cia quan-|* tum po- tes|lau- * *|da de-||
 C,4 z2 G,2- | G,2 F,2 E,2 D,2- | D,2 C,2 F,3 E, | D,C, D,2 A,,2 C,2 | B,,4 A,,4 | z8 | z8 | z8 | %61
w: um, qui|_ ti- bi re-|* gem Fran- cis-|* * cum _ de-|* dit||||
 z4 z2 C,2- | C,2 D,2 E,4 | D,4 F,2 E,2 | D,4 C,4 | G,,2 B,,4 C,2 | G,,4 A,,4- | A,,2 F,,2 F,,4 | %68
w: pro-|* sa- lu-|te pa- *||||* tri- ae.|
 z8 | z8 ||[M:3/2] z12 | A,8 A,4 | G,4 F,4 E,4 | D,8 D,4 | C,8 z4 | F,8 F,4 | B,8 A,4 | F,4 G,8 | %78
w: |||Er- go|cla- me- mus|in cae-|lum|vi- vat|rex in|e- ter-|
 F,12- | F,8 z4 | F,8 E,4 | F,8 z4 | F,8 E,4 | C,6 D,2 E,4 | F,4 C,8 | F,,16 || %86
w: num,|_|vi- vat|rex,|vi- vat|rex _ per|sae- cu-|la.|
[M:2/2] C,4 C,2 D,2 | E,4 C,2 F,2- | F,E, D,C, D,2 C,2- | C,2 B,,A,, B,,2 C,2 | A,,4 C,4 | %91
w: Je- su bo-|ne rex vir-|* tu- * * * *||tum, qui|
 B,,2 C,2 D,2 B,,2 | C,3 B,, A,,G,, D,2 | E,2 D,4 C,B,, | A,,2 F,4 E,D, | C,B,, C,2 F,,4 | z8 | %97
w: das sa- lu- tem,|qui _ _ _ das|sa- lu- * *|tem re- * *|* * gi- bus||
 z8 | z8 | z8 | z8 | z8 | z8 | z4 F,4- | F,4 F,4 | D,2 C,2 D,2 A,,2 | B,,4 A,,4- | A,,4 z4 | z8 | %109
w: ||||||dans|_ pa-|cem su- is di-|e- bus.|_||
 z8 | z4 D,4 | D,2 E,2 D,2 C,2 | D,4 E,4 | F,4 z4 | z8 | z8 | F,6 E,2 | D,4 B,,2 C,2 | D,4 C,4 | %119
w: |Er-|go cla- me- mus|in cae-|lum:|||vi- vat|rex in e-|ter- num,|
 z2 C,4 A,,2 | D,4 z2 C,2- | C,2 A,,2 D,4 | z2 C,4 A,,2 | D,4 C,4 | F,,8 | z8 | z8 | z4 z2 D,2 | %128
w: vi- vat|rex, vi-|* vat rex|in se-|cu- *|la.|||O|
 D,2 E,2 F,4 | E,4 C,2 G,2- | G,2 F,E, D,C, D,2 | C,3 D, E,C, F,2- | F,2 E,2 F,4 | z8 | z8 | z8 | %136
w: Ma- ri- a,|ma- ter de-|||* * i,||||
 z8 | z4 A,4 | A,2 A,2 F,4- | F,2 F,2 F,4 | G,4 D,4 | z4 F,3 E, | D,2 C,2 D,2 F,2 | E,4 z4 | z8 | %145
w: |ex-|au- di pre-|* ces po-|pu- li,|ser- va|sem- per li- li-|um,||
 z4 D,3 C, | D,2 F,2 E,2 D,2 | C,4 z4 | z8 ||[M:3/2] z12 | A,8 A,4 | G,4 F,4 E,4 | D,8 D,4 | %153
w: ser- va|sem- per li- li-|um.|||Er- go|cla- me- mus|in cae-|
 C,8 z4 | F,8 F,4 | B,8 A,4 | F,4 G,8 | F,12- | F,8 z4 | F,8 E,4 | F,8 z4 | F,8 E,4 | C,6 D,2 E,4 | %163
w: lum:|vi- vat|rex in|e- ter-|num,|_|vi- vat|rex,|vi- vat|rex per se-|
 F,4 C,8 | F,,8 z4 | z8 z4 | F,8 E,4 | F,8 z4 | F,8 E,4 | C,6 D,2 E,4 | F,4 C,8 | F,,16 |] %172
w: * cu-|la.||Vi- vat|rex,|vi- vat|rex per se-|* cu-|la.|

